X: 388
T: A Thousand Farewells
R: slide
M: 12/8
K: Dmajor
|:dAF EFE DBA A2 D|FEF BAF dAF EFA|
d2 A EFE DBA AFD|~F3 DBA EFE D3:|
|:DF/G/A f2 a afe edB|A^GA DFA BAF EF/G/A|
dcd f2 a afe edB|~A3 DBA Bdc d3:|

